X: 1
T: Willafjord
C: Trad
O: Shetland
R: Reel
M: 4/4
L: 1/8
K: D
Z: ABC transcription by Verge Roller
r: 32
|: B2 | "D" A2 FA- ADFA | "G" B2 GB- BDGB | "D" A2 FA- ADFA | "Em" EFGA "A" GFED |
"D" A2 FA- ADFA | "G" B2 GB- BDGB | "A" ABcd efge | "D" f2 d2 d2 :|
|: e2 | "D" f2 df- ffdf | "G" geaf gfeg | "D" f2df- fAdf | "A" e2ce-eAce|
"D" f2df- ffdf | "G" geaf gfed | "A" ABcd efge | "D" f2 d2 d2 :|
